X:271
T:Fyket, The
R:Strathspey
B:The Athole Collection
M:C|
L:1/8
K:A
=g|f>A e/f/=g/e/ a<A A>g|f>A e/f/=g/d/ B<=GG>g|f>A e/f/=g/e/ f>A e/f/g/e/|
fd/f/ ed/^c/ B=GG:||:e/=g/|a>a b/a/=g/e/ aA Ae/g/|a>a b/a/=g/e/ g<=G Ge/g/|1
a>a b/a/=g/e/ a>a b/a/g/e/|=gg e/g/d/g/ B=GG:|2 a>a a>=g a/g/a/b/ ag/e/|
d/e/=g/a/ e/g/d/g/ B=GG||

